packages/ffe-icons/icons/filled/md/pageview.svg

<svg xmlns="http://www.w3.org/2000/svg" height="24" viewBox="0 -960 960 960" width="24"><path d="M460-400q-42 0-71-29t-29-71q0-42 29-71t71-29q42 0 71 29t29 71q0 42-29 71t-71 29ZM172.309-180.001q-30.308 0-51.308-21t-21-51.308v-455.382q0-30.308 21-51.308t51.308-21h615.382q30.308 0 51.308 21t21 51.308v472.768q0 24.307-22.193 33.653-22.192 9.346-39.269-7.73L594.306-413.231q14-20.616 19.846-41.539 5.847-20.923 5.847-45.23 0-66.538-46.731-113.268-46.73-46.731-113.268-46.731-66.538 0-113.268 46.731-46.731 46.73-46.731 113.268 0 66.538 46.731 113.268 46.73 46.731 113.268 46.731 26 0 49.538-7.577 23.539-7.577 43.385-22.731L681.77-241.463q17.076 17.077 7.73 39.269-9.346 22.193-33.653 22.193H172.309Z"/></svg>

<svg xmlns="http://www.w3.org/2000/svg" height="24" viewBox="0 -960 960 960" width="24"><path d="M460-400q-42 0-71-29t-29-71q0-42 29-71t71-29q42 0 71 29t29 71q0 42-29 71t-71 29ZM172.31-180Q142-180 121-201q-21-21-21-51.31v-455.38Q100-738 121-759q21-21 51.31-21h615.38Q818-780 839-759q21 21 21 51.31v472.77q0 24.3-22.19 33.65-22.2 9.35-39.27-7.73L594.31-413.23q14-20.62 19.84-41.54Q620-475.69 620-500q0-66.54-46.73-113.27Q526.54-660 460-660q-66.54 0-113.27 46.73Q300-566.54 300-500q0 66.54 46.73 113.27Q393.46-340 460-340q26 0 49.54-7.58t43.38-22.73l128.85 128.85q17.08 17.07 7.73 39.27Q680.15-180 655.85-180H172.31Z"/></svg>
